pro/src/icons/full-up.svg

<svg width="48" height="48" viewBox="0 0 48 48" fill="none" xmlns="http://www.w3.org/2000/svg">
<path id="icon" fill="currentColor" d="M42.3374 31.34C41.4504 32.216 40.0078 32.2206 39.1151 31.3502L24.015 16.6297L8.88036 31.3329L8.87782 31.3353C7.98103 32.2017 6.53826 32.191 5.65527 31.311C4.7724 30.4312 4.78309 29.0158 5.67874 28.149L21.0923 13.1749L21.0951 13.1722C22.7066 11.6154 25.3278 11.6002 26.9452 13.1812L26.9461 13.182L42.3271 28.1764C43.2202 29.0471 43.2249 30.4637 42.3374 31.34Z" />
</svg>

<svg xmlns="http://www.w3.org/2000/svg" width="48" height="48" fill="none"><path id="icon" fill="currentColor" d="M42.337 31.34a2.31 2.31 0 0 1-3.222.01l-15.1-14.72L8.88 31.333l-.002.002a2.31 2.31 0 0 1-3.223-.024 2.207 2.207 0 0 1 .024-3.162l15.413-14.974.003-.003c1.612-1.557 4.233-1.572 5.85.01h.001l15.381 14.994c.893.871.898 2.288.01 3.164"/></svg>
